swri-robotics/RPI-Tesseract-Motion-Planning/robot_motion_planning/task_data/tesseract_output/curve1_dense/movej_waypoints.csv
t,j1,j2,j3,j4,j5,j6
0,-0.285934,0.407543,0.251547,-0.00132184,0.910503,-1.54163e-05
0.0613068,-0.284823,0.407067,0.252221,-0.00129516,0.910314,-1.54163e-05
0.0877618,-0.283717,0.406593,0.252891,-0.00121126,0.910138,-1.54163e-05
0.121948,-0.282616,0.406122,0.253558,-0.00107007,0.909976,-1.54164e-05
0.145346,-0.28152,0.405652,0.254222,-0.00087152,0.909828,-1.54166e-05
0.163888,-0.280428,0.405184,0.254883,-0.000615544,0.909694,-1.54168e-05
0.186321,-0.279341,0.404719,0.255541,-0.00030208,0.909573,-1.54172e-05
0.213271,-0.278259,0.404255,0.256197,6.89287e-05,0.909466,-1.54176e-05
0.234267,-0.277182,0.403793,0.256849,0.000497536,0.909371,-1.5418e-05
0.255198,-0.27611,0.403334,0.257498,0.000983791,0.90929,-1.54186e-05
0.280872,-0.275042,0.402876,0.258144,0.00152774,0.909222,-1.54192e-05
0.30206,-0.273979,0.40242,0.258788,0.00212941,0.909167,-1.54199e-05
0.32254,-0.272922,0.401966,0.259429,0.00278885,0.909124,-1.54207e-05
0.339662,-0.271868,0.401514,0.260067,0.00350609,0.909095,-1.54216e-05
0.355306,-0.27082,0.401063,0.260702,0.00428115,0.909077,-1.54225e-05
0.369032,-0.269777,0.400615,0.261335,0.00511405,0.909073,-1.54236e-05
0.382389,-0.268738,0.400168,0.261965,0.00600481,0.90908,-1.54247e-05
0.396683,-0.267705,0.399723,0.262593,0.00695343,0.9091,-1.54258e-05
0.410007,-0.266676,0.39928,0.263218,0.00795993,0.909132,-1.54271e-05
0.423987,-0.265652,0.398839,0.26384,0.0090243,0.909176,-1.54284e-05
0.439411,-0.264633,0.3984,0.264461,0.0101465,0.909232,-1.54299e-05
0.453605,-0.263619,0.397962,0.265079,0.0113266,0.9093,-1.54314e-05
0.468492,-0.262609,0.397526,0.265694,0.0125646,0.90938,-1.54329e-05
0.485159,-0.261605,0.397092,0.266308,0.0138603,0.909472,-1.54346e-05
0.500281,-0.260606,0.39666,0.266919,0.0152136,0.909575,-1.54363e-05
0.516221,-0.259611,0.396229,0.267528,0.0166246,0.90969,-1.54382e-05
0.534465,-0.258622,0.395801,0.268134,0.0180933,0.909817,-1.54401e-05
0.550593,-0.257637,0.395374,0.268739,0.0196196,0.909955,-1.5442e-05
0.566767,-0.256657,0.394948,0.269342,0.0212035,0.910105,-1.54441e-05
0.585688,-0.255683,0.394525,0.269942,0.0228449,0.910267,-1.54463e-05
0.604956,-0.254713,0.394103,0.270541,0.0245436,0.91044,-1.54485e-05
0.627842,-0.253748,0.393683,0.271138,0.0262994,0.910624,-1.54508e-05
0.646683,-0.252789,0.393265,0.271733,0.0281124,0.91082,-1.54532e-05
0.662813,-0.251834,0.392848,0.272326,0.0299825,0.911027,-1.54557e-05
0.680316,-0.250884,0.392433,0.272918,0.0319097,0.911246,-1.54583e-05
0.699623,-0.249939,0.39202,0.273508,0.0338938,0.911476,-1.54609e-05
0.717106,-0.248999,0.391609,0.274096,0.0359345,0.911717,-1.54637e-05
0.736031,-0.248064,0.391199,0.274682,0.0380316,0.911969,-1.54665e-05
0.758794,-0.247134,0.390791,0.275267,0.0401853,0.912233,-1.54694e-05
0.778469,-0.246209,0.390385,0.275851,0.0423952,0.912509,-1.54724e-05
0.796923,-0.245288,0.389981,0.276433,0.0446614,0.912795,-1.54754e-05
0.817795,-0.244373,0.389578,0.277014,0.0469831,0.913093,-1.54786e-05
0.836311,-0.243463,0.389177,0.277594,0.0493606,0.913402,-1.54818e-05
0.853601,-0.242557,0.388778,0.278172,0.0517937,0.913723,-1.54851e-05
0.874076,-0.241657,0.388381,0.27875,0.0542823,0.914055,-1.54884e-05
0.898088,-0.240761,0.387986,0.279326,0.0568254,0.914398,-1.54919e-05
0.919127,-0.23987,0.387592,0.279901,0.0594234,0.914752,-1.54954e-05
0.940194,-0.238984,0.3872,0.280475,0.0620761,0.915118,-1.5499e-05
0.964714,-0.238103,0.38681,0.281048,0.0647832,0.915496,-1.55026e-05
0.986291,-0.237227,0.386422,0.28162,0.0675438,0.915884,-1.55064e-05
1.00752,-0.236356,0.386036,0.282191,0.0703582,0.916284,-1.55102e-05
1.0343,-0.235489,0.385652,0.282762,0.073226,0.916696,-1.55141e-05
1.06551,-0.234627,0.385269,0.283332,0.076147,0.917119,-1.5518e-05
1.09042,-0.233771,0.384888,0.283901,0.0791202,0.917553,-1.55221e-05
1.11303,-0.232918,0.38451,0.28447,0.0821458,0.917999,-1.55262e-05
1.1396,-0.232071,0.384133,0.285038,0.0852236,0.918457,-1.55304e-05
1.16745,-0.231228,0.383758,0.285606,0.0883526,0.918926,-1.55346e-05
1.20163,-0.23039,0.383385,0.286173,0.0915326,0.919406,-1.55389e-05
1.22931,-0.229556,0.383014,0.28674,0.0947635,0.919899,-1.55434e-05
1.2556,-0.228727,0.382645,0.287307,0.0980444,0.920402,-1.55478e-05
1.28763,-0.227903,0.382277,0.287873,0.101375,0.920917,-1.55524e-05
1.31825,-0.227083,0.381912,0.28844,0.104755,0.921444,-1.5557e-05
1.3556,-0.226267,0.381549,0.289006,0.108184,0.921983,-1.55617e-05
1.38419,-0.225456,0.381188,0.289572,0.11166,0.922533,-1.55665e-05
1.40701,-0.22465,0.380829,0.290139,0.115185,0.923095,-1.55713e-05
1.42957,-0.223848,0.380472,0.290705,0.118757,0.923668,-1.55762e-05
1.45652,-0.22305,0.380117,0.291271,0.122375,0.924253,-1.55812e-05
1.48828,-0.222256,0.379764,0.291838,0.126039,0.92485,-1.55862e-05
1.53015,-0.221467,0.379413,0.292405,0.129748,0.925458,-1.55913e-05
1.5649,-0.220681,0.379064,0.292973,0.133502,0.926078,-1.55965e-05
1.60547,-0.2199,0.378718,0.293541,0.1373,0.926709,-1.56018e-05
1.63708,-0.219123,0.378373,0.294109,0.141141,0.927353,-1.56071e-05
1.6673,-0.21835,0.378031,0.294678,0.145025,0.928007,-1.56124e-05
1.70415,-0.217581,0.377691,0.295247,0.148951,0.928673,-1.56179e-05
1.73483,-0.216815,0.377353,0.295817,0.152918,0.929351,-1.56234e-05
1.767,-0.216054,0.377017,0.296388,0.156925,0.93004,-1.56289e-05
1.80843,-0.215296,0.376683,0.29696,0.160972,0.930741,-1.56346e-05
1.83986,-0.214542,0.376352,0.297532,0.165057,0.931453,-1.56402e-05
1.86556,-0.213791,0.376023,0.298105,0.16918,0.932176,-1.5646e-05
1.89547,-0.213044,0.375696,0.298679,0.173341,0.93291,-1.56518e-05
1.93369,-0.212301,0.375371,0.299255,0.177537,0.933656,-1.56576e-05
1.96538,-0.21156,0.375049,0.299831,0.181769,0.934413,-1.56635e-05
1.99839,-0.210823,0.374729,0.300408,0.186036,0.935181,-1.56695e-05
2.04052,-0.210089,0.374411,0.300987,0.190336,0.935959,-1.56755e-05
2.07428,-0.209358,0.374095,0.301566,0.194669,0.936749,-1.56816e-05
2.10861,-0.20863,0.373782,0.302147,0.199033,0.937549,-1.56877e-05
2.15277,-0.207905,0.373471,0.302729,0.203427,0.93836,-1.56939e-05
2.18966,-0.207183,0.373162,0.303313,0.207852,0.939181,-1.57002e-05
2.23237,-0.206464,0.372856,0.303898,0.212304,0.940013,-1.57065e-05
2.26537,-0.205747,0.372552,0.304484,0.216783,0.940854,-1.57128e-05
2.29493,-0.205032,0.372251,0.305072,0.221289,0.941706,-1.57192e-05
2.32955,-0.20432,0.371951,0.305661,0.225821,0.942567,-1.57257e-05
2.36272,-0.20361,0.371654,0.306252,0.230378,0.943438,-1.57323e-05
2.4017,-0.202903,0.37136,0.306844,0.234956,0.944319,-1.57389e-05
2.43442,-0.202197,0.371067,0.307438,0.239556,0.945208,-1.57456e-05
2.46964,-0.201493,0.370778,0.308033,0.244178,0.946107,-1.57523e-05
2.51575,-0.200791,0.37049,0.30863,0.248819,0.947015,-1.5759e-05
2.5516,-0.200091,0.370205,0.309229,0.253479,0.947931,-1.57659e-05
2.5867,-0.199392,0.369922,0.30983,0.258156,0.948855,-1.57727e-05
2.63246,-0.198695,0.369641,0.310432,0.26285,0.949788,-1.57797e-05
2.66933,-0.197999,0.369363,0.311036,0.267558,0.950728,-1.57866e-05
2.69819,-0.197304,0.369087,0.311642,0.27228,0.951676,-1.57936e-05
2.72875,-0.19661,0.368813,0.312249,0.277013,0.952631,-1.58007e-05
2.76609,-0.195917,0.368542,0.312859,0.281758,0.953593,-1.58078e-05
2.80069,-0.195225,0.368273,0.313469,0.286513,0.954562,-1.5815e-05
2.84122,-0.194534,0.368006,0.314082,0.291276,0.955537,-1.58222e-05
2.87436,-0.193843,0.367742,0.314697,0.296047,0.956517,-1.58294e-05
2.90704,-0.193152,0.367479,0.315313,0.300825,0.957504,-1.58368e-05
2.94645,-0.192462,0.367219,0.315931,0.305607,0.958496,-1.58441e-05
2.97981,-0.191772,0.366961,0.316551,0.310392,0.959493,-1.58515e-05
3.01758,-0.191081,0.366706,0.317173,0.31518,0.960494,-1.58589e-05
3.06983,-0.190391,0.366452,0.317796,0.319969,0.9615,-1.58664e-05
3.10818,-0.189699,0.366201,0.318421,0.324758,0.962509,-1.5874e-05
3.14423,-0.189008,0.365952,0.319048,0.329546,0.963522,-1.58815e-05
3.18998,-0.188316,0.365705,0.319676,0.334329,0.964537,-1.58892e-05
3.22518,-0.187623,0.36546,0.320306,0.339108,0.965555,-1.58968e-05
3.25324,-0.186929,0.365217,0.320937,0.343881,0.966574,-1.59045e-05
3.28328,-0.186234,0.364976,0.32157,0.348647,0.967596,-1.59123e-05
3.32118,-0.185538,0.364737,0.322205,0.353405,0.968619,-1.59201e-05
3.36156,-0.184841,0.3645,0.322841,0.358154,0.969642,-1.59279e-05
3.41765,-0.184142,0.364266,0.323478,0.362892,0.970665,-1.59358e-05
3.4586,-0.183441,0.364033,0.324116,0.367619,0.971689,-1.59437e-05
3.48848,-0.182738,0.363802,0.324756,0.372331,0.972711,-1.59516e-05
3.51767,-0.182034,0.363572,0.325397,0.377029,0.973733,-1.59596e-05
3.55199,-0.181327,0.363345,0.32604,0.381711,0.974752,-1.59676e-05
3.58483,-0.180618,0.36312,0.326683,0.386376,0.97577,-1.59757e-05
3.62283,-0.179907,0.362896,0.327327,0.391022,0.976784,-1.59837e-05
3.65528,-0.179193,0.362674,0.327972,0.395649,0.977795,-1.59919e-05
3.69335,-0.178477,0.362453,0.328618,0.400254,0.978803,-1.6e-05
3.74804,-0.177757,0.362235,0.329265,0.404838,0.979806,-1.60082e-05
3.78783,-0.177035,0.362018,0.329912,0.409398,0.980804,-1.60164e-05
3.82549,-0.176309,0.361802,0.33056,0.413933,0.981797,-1.60247e-05
3.86241,-0.175581,0.361588,0.331209,0.418443,0.982784,-1.60329e-05
3.90907,-0.174848,0.361376,0.331857,0.422926,0.983765,-1.60412e-05
3.94593,-0.174112,0.361165,0.332506,0.427381,0.984738,-1.60496e-05
3.9843,-0.173373,0.360955,0.333155,0.431806,0.985704,-1.6058e-05
4.01941,-0.17263,0.360747,0.333804,0.436201,0.986662,-1.60664e-05
4.04618,-0.171882,0.36054,0.334453,0.440564,0.987611,-1.60748e-05
4.06815,-0.171131,0.360335,0.335102,0.444894,0.988551,-1.60833e-05
4.08837,-0.170375,0.360131,0.33575,0.44919,0.989481,-1.60918e-05
4.11078,-0.169615,0.359928,0.336397,0.453452,0.990401,-1.61003e-05
4.13826,-0.168851,0.359726,0.337044,0.457676,0.99131,-1.61089e-05
4.17458,-0.168082,0.359526,0.337691,0.461864,0.992207,-1.61175e-05
4.21305,-0.167308,0.359326,0.338336,0.466014,0.993093,-1.61262e-05
4.24795,-0.166529,0.359128,0.33898,0.470124,0.993966,-1.61348e-05
4.2906,-0.165746,0.35893,0.339623,0.474194,0.994826,-1.61435e-05
4.32325,-0.164957,0.358734,0.340264,0.478222,0.995672,-1.61522e-05
4.35225,-0.164163,0.358539,0.340904,0.482207,0.996504,-1.61609e-05
4.3823,-0.163363,0.358344,0.341542,0.486151,0.997322,-1.61697e-05
4.41891,-0.162558,0.35815,0.342178,0.49005,0.998125,-1.61785e-05
4.45208,-0.161748,0.357958,0.342813,0.493904,0.998911,-1.61872e-05
4.4785,-0.160931,0.357765,0.343445,0.497712,0.999682,-1.6196e-05
4.50718,-0.160109,0.357574,0.344074,0.501472,1.00044,-1.62049e-05
4.54241,-0.159281,0.357384,0.344701,0.505184,1.00117,-1.62137e-05
4.57185,-0.158447,0.357194,0.345325,0.508847,1.00189,-1.62226e-05
4.60111,-0.157606,0.357004,0.345947,0.512459,1.00259,-1.62315e-05
4.62635,-0.15676,0.356816,0.346565,0.51602,1.00327,-1.62404e-05
4.65534,-0.155907,0.356628,0.347179,0.519529,1.00393,-1.62493e-05
4.69438,-0.155048,0.35644,0.34779,0.522986,1.00458,-1.62583e-05
4.72661,-0.154182,0.356253,0.348397,0.526388,1.0052,-1.62672e-05
4.75111,-0.153309,0.356066,0.349,0.529736,1.0058,-1.62762e-05
4.77568,-0.15243,0.35588,0.3496,0.533028,1.00638,-1.62853e-05
4.80393,-0.151543,0.355694,0.350194,0.536265,1.00694,-1.62943e-05
4.82708,-0.15065,0.355509,0.350784,0.539444,1.00747,-1.63034e-05
4.84719,-0.14975,0.355324,0.35137,0.542564,1.00798,-1.63125e-05
4.86965,-0.148842,0.355139,0.35195,0.545625,1.00847,-1.63216e-05
4.89581,-0.147928,0.354954,0.352525,0.548627,1.00894,-1.63308e-05
4.92789,-0.147006,0.35477,0.353094,0.551567,1.00938,-1.634e-05
4.95425,-0.146076,0.354586,0.353658,0.554446,1.0098,-1.63492e-05
4.97987,-0.145139,0.354402,0.354216,0.557262,1.01019,-1.63585e-05
5.00147,-0.144194,0.354218,0.354768,0.560014,1.01056,-1.63678e-05
5.02441,-0.143242,0.354034,0.355313,0.562702,1.0109,-1.63771e-05
5.05148,-0.142281,0.353851,0.355852,0.565324,1.01121,-1.63865e-05
5.07313,-0.141313,0.353667,0.356384,0.56788,1.0115,-1.63959e-05
5.0917,-0.140337,0.353484,0.356908,0.570368,1.01176,-1.64053e-05
5.11206,-0.139353,0.3533,0.357426,0.572788,1.01199,-1.64148e-05
5.13358,-0.13836,0.353117,0.357936,0.575139,1.0122,-1.64243e-05
5.15808,-0.137359,0.352934,0.358438,0.577419,1.01237,-1.64338e-05
5.17864,-0.13635,0.35275,0.358932,0.579628,1.01252,-1.64434e-05
5.19974,-0.135333,0.352567,0.359417,0.581765,1.01264,-1.6453e-05
5.22443,-0.134307,0.352383,0.359894,0.583829,1.01273,-1.64627e-05
5.24433,-0.133272,0.352199,0.360362,0.585818,1.01279,-1.64724e-05
5.26161,-0.132228,0.352016,0.360822,0.587731,1.01281,-1.64822e-05
5.27658,-0.131176,0.351832,0.361271,0.589568,1.01281,-1.6492e-05
5.29164,-0.130115,0.351648,0.361712,0.591327,1.01278,-1.65019e-05
5.30799,-0.129045,0.351464,0.362142,0.593007,1.01271,-1.65118e-05
5.32298,-0.127966,0.351279,0.362563,0.594607,1.01261,-1.65218e-05
5.33854,-0.126877,0.351095,0.362973,0.596126,1.01248,-1.65318e-05
5.35608,-0.12578,0.35091,0.363372,0.597562,1.01232,-1.65418e-05
5.37172,-0.124673,0.350726,0.363761,0.598915,1.01212,-1.65519e-05
5.38577,-0.123556,0.350541,0.364139,0.600182,1.01189,-1.65621e-05
5.39878,-0.12243,0.350356,0.364505,0.601362,1.01163,-1.65722e-05
5.41305,-0.121295,0.350171,0.36486,0.602454,1.01133,-1.65825e-05
5.42909,-0.12015,0.349985,0.365202,0.603457,1.011,-1.65927e-05
5.44354,-0.118995,0.3498,0.365533,0.604369,1.01063,-1.66031e-05
5.45626,-0.117831,0.349614,0.365851,0.605189,1.01023,-1.66134e-05
5.46779,-0.116656,0.349429,0.366157,0.605915,1.00979,-1.66238e-05
5.47842,-0.115471,0.349243,0.36645,0.606545,1.00932,-1.66343e-05
5.48836,-0.114276,0.349057,0.36673,0.607078,1.00881,-1.66448e-05
5.49774,-0.113071,0.348871,0.366997,0.607512,1.00826,-1.66553e-05
5.50666,-0.111855,0.348685,0.36725,0.607846,1.00767,-1.66659e-05
5.51529,-0.110628,0.348499,0.367489,0.608077,1.00705,-1.66766e-05
5.52394,-0.109391,0.348312,0.367714,0.608204,1.00639,-1.66872e-05
5.53259,-0.108143,0.348126,0.367926,0.608225,1.00569,-1.6698e-05
5.54132,-0.106883,0.34794,0.368122,0.608137,1.00496,-1.67088e-05
5.55039,-0.105612,0.347754,0.368304,0.60794,1.00418,-1.67196e-05
5.56006,-0.10433,0.347568,0.368472,0.60763,1.00337,-1.67305e-05
5.57049,-0.103036,0.347382,0.368624,0.607205,1.00251,-1.67414e-05
5.58188,-0.10173,0.347196,0.36876,0.606663,1.00162,-1.67524e-05
5.59451,-0.100413,0.34701,0.368882,0.606001,1.00069,-1.67634e-05
5.60883,-0.0990834,0.346825,0.368987,0.605218,0.999713,-1.67745e-05
5.62574,-0.0977417,0.34664,0.369077,0.604311,0.998699,-1.67856e-05
5.64528,-0.0963878,0.346455,0.36915,0.603277,0.997644,-1.67968e-05
5.66258,-0.0950217,0.346271,0.369207,0.602114,0.996549,-1.6808e-05
5.67857,-0.0936428,0.346087,0.369248,0.600818,0.995413,-1.68193e-05
5.69656,-0.0922511,0.345904,0.369272,0.599388,0.994235,-1.68307e-05
5.71566,-0.0908464,0.345722,0.369279,0.59782,0.993016,-1.68421e-05
5.73339,-0.0894285,0.34554,0.369269,0.596111,0.991756,-1.68535e-05
5.75303,-0.0879973,0.345359,0.369242,0.594259,0.990454,-1.6865e-05
5.77625,-0.0865525,0.345179,0.369197,0.59226,0.989111,-1.68766e-05
5.79682,-0.0850938,0.345001,0.369136,0.590111,0.987726,-1.68882e-05
5.817,-0.0836211,0.344823,0.369056,0.587808,0.9863,-1.68999e-05
5.83695,-0.0821342,0.344647,0.368959,0.585349,0.984832,-1.69117e-05
5.85522,-0.0806327,0.344472,0.368844,0.58273,0.983323,-1.69235e-05
5.87432,-0.0791164,0.344299,0.368711,0.579946,0.981773,-1.69354e-05
5.8977,-0.0775851,0.344128,0.368561,0.576996,0.980182,-1.69473e-05
5.92373,-0.0760386,0.343958,0.368392,0.573874,0.97855,-1.69593e-05
5.94717,-0.0744766,0.34379,0.368205,0.570577,0.976878,-1.69714e-05
5.97119,-0.0728987,0.343625,0.367999,0.567102,0.975166,-1.69835e-05
5.99994,-0.0713049,0.343462,0.367776,0.563444,0.973414,-1.69956e-05
6.02604,-0.0696947,0.343302,0.367534,0.559599,0.971624,-1.70078e-05
6.05105,-0.0680677,0.343145,0.367274,0.555562,0.969795,-1.70201e-05
6.07455,-0.0664239,0.34299,0.366995,0.55133,0.967929,-1.70323e-05
6.10062,-0.0647627,0.342839,0.366698,0.546899,0.966027,-1.70446e-05
6.12513,-0.0630838,0.342692,0.366382,0.542263,0.964088,-1.7057e-05
6.149,-0.0613873,0.342548,0.366048,0.537419,0.962115,-1.70693e-05
6.17256,-0.0596724,0.342409,0.365695,0.532362,0.960108,-1.70817e-05
6.20085,-0.0579392,0.342273,0.365324,0.527088,0.958069,-1.70941e-05
6.23593,-0.0561874,0.342143,0.364935,0.521593,0.955999,-1.71064e-05
6.26895,-0.0544161,0.342018,0.364527,0.51587,0.9539,-1.71189e-05
6.307,-0.0526255,0.341898,0.364101,0.509916,0.951774,-1.71313e-05
6.33956,-0.0508148,0.341783,0.363657,0.503725,0.949621,-1.71438e-05
6.36699,-0.0489841,0.341675,0.363195,0.497295,0.947445,-1.71565e-05
6.39235,-0.0471329,0.341574,0.362715,0.490619,0.945248,-1.71694e-05
6.42039,-0.0452612,0.34148,0.362217,0.483694,0.943031,-1.71825e-05
6.45519,-0.0433682,0.341393,0.361701,0.476515,0.940798,-1.71958e-05
6.50129,-0.0414541,0.341314,0.361167,0.469078,0.938551,-1.72092e-05
6.56431,-0.0395181,0.341243,0.360616,0.461378,0.936293,-1.72228e-05
6.61328,-0.0375603,0.341181,0.360048,0.453411,0.934028,-1.72364e-05
6.65911,-0.0355801,0.341129,0.359463,0.445172,0.931758,-1.72501e-05
6.70484,-0.0335777,0.341087,0.35886,0.43666,0.929487,-1.72639e-05
6.74316,-0.0315527,0.341056,0.358241,0.42787,0.92722,-1.72776e-05
6.77993,-0.029505,0.341035,0.357606,0.4188,0.92496,-1.72914e-05
6.82316,-0.0274344,0.341027,0.356955,0.409445,0.922711,-1.73051e-05
6.86581,-0.0253409,0.341031,0.356287,0.399806,0.920478,-1.73188e-05
6.90378,-0.0232239,0.341048,0.355604,0.389876,0.918266,-1.73326e-05
6.94733,-0.0210831,0.341079,0.354906,0.379653,0.916079,-1.73464e-05
7.00162,-0.0189193,0.341125,0.354192,0.36914,0.913923,-1.73603e-05
7.04672,-0.016732,0.341186,0.353464,0.358333,0.911803,-1.73742e-05
7.08584,-0.0145214,0.341263,0.352722,0.347233,0.909725,-1.73882e-05
7.12965,-0.0122875,0.341357,0.351966,0.335841,0.907694,-1.74022e-05
7.17473,-0.0100305,0.341468,0.351196,0.324156,0.905716,-1.74163e-05
7.21436,-0.00775009,0.341597,0.350412,0.312178,0.903797,-1.74305e-05
7.2537,-0.00544804,0.341746,0.349617,0.299919,0.901945,-1.74447e-05
7.3007,-0.00312301,0.341914,0.348808,0.287371,0.900164,-1.7459e-05
7.35268,-0.000776111,0.342104,0.347988,0.274543,0.898462,-1.74734e-05
7.3995,0.00159221,0.342314,0.347157,0.26144,0.896845,-1.74879e-05
7.44961,0.00398169,0.342547,0.346315,0.248067,0.895319,-1.75024e-05
7.51105,0.00639253,0.342803,0.345462,0.234426,0.893891,-1.75171e-05
7.56547,0.00882345,0.343082,0.344598,0.220527,0.892567,-1.75318e-05
7.6112,0.0112726,0.343386,0.343726,0.206387,0.891354,-1.75465e-05
7.65958,0.0137399,0.343715,0.342845,0.192011,0.890258,-1.75614e-05
7.71641,0.0162252,0.344069,0.341956,0.177406,0.889286,-1.75763e-05
7.76677,0.0187265,0.34445,0.341059,0.162588,0.888442,-1.75914e-05
7.81855,0.0212435,0.344858,0.340154,0.147567,0.887733,-1.76065e-05
7.88046,0.0237752,0.345294,0.339243,0.132357,0.887164,-1.76217e-05
7.93907,0.0263197,0.345757,0.338326,0.116976,0.88674,-1.7637e-05
8.00705,0.0288769,0.346249,0.337403,0.101432,0.886465,-1.76523e-05
8.06207,0.0314452,0.34677,0.336475,0.0857433,0.886344,-1.76676e-05
8.10632,0.0340229,0.34732,0.335543,0.0699305,0.886379,-1.7683e-05
8.14604,0.0366084,0.347899,0.334606,0.0540117,0.886575,-1.76985e-05
8.18976,0.0392003,0.348508,0.333667,0.0380047,0.886934,-1.77142e-05
8.23936,0.0417972,0.349146,0.332725,0.021928,0.887457,-1.77299e-05
8.28353,0.0443979,0.349814,0.33178,0.00579997,0.888146,-1.77457e-05
8.3244,0.0470015,0.350511,0.330833,-0.0103655,0.889001,-1.77615e-05
8.36977,0.0496062,0.351238,0.329885,-0.0265457,0.890024,-1.77773e-05
8.42107,0.0522098,0.351994,0.328936,-0.0427182,0.891213,-1.77931e-05
8.48061,0.0548109,0.352779,0.327987,-0.0588631,0.892566,-1.78089e-05
8.53156,0.0574075,0.353592,0.327038,-0.0749588,0.894082,-1.78245e-05
8.57891,0.059997,0.354433,0.32609,-0.0909791,0.895758,-1.78401e-05
8.63232,0.0625792,0.3553,0.325142,-0.106913,0.89759,-1.78556e-05
8.68752,0.0651525,0.356194,0.324197,-0.122742,0.899575,-1.78711e-05
8.75073,0.0677154,0.357114,0.323253,-0.138447,0.901709,-1.78865e-05
8.80522,0.0702664,0.358059,0.322311,-0.154011,0.903986,-1.79019e-05
8.86318,0.072804,0.359028,0.321371,-0.169416,0.906402,-1.79173e-05
8.93377,0.0753268,0.360019,0.320435,-0.184645,0.908949,-1.79327e-05
8.99221,0.0778335,0.361033,0.319501,-0.199684,0.911623,-1.79481e-05
9.04721,0.0803227,0.362067,0.318571,-0.214518,0.914415,-1.79636e-05
9.09229,0.0827934,0.363121,0.317644,-0.229132,0.917319,-1.79791e-05
9.13044,0.0852442,0.364194,0.316722,-0.243513,0.920327,-1.79947e-05
9.16702,0.0876753,0.365284,0.315803,-0.257658,0.923433,-1.80104e-05
9.20644,0.0900848,0.36639,0.314888,-0.271548,0.926629,-1.80261e-05
9.24994,0.0924715,0.36751,0.313979,-0.285173,0.929906,-1.80419e-05
9.29256,0.0948341,0.368644,0.313074,-0.298522,0.933255,-1.80577e-05
9.3395,0.0971712,0.369788,0.312174,-0.311582,0.936668,-1.80735e-05
9.38729,0.0994833,0.370943,0.311279,-0.324353,0.940137,-1.80893e-05
9.44063,0.10177,0.372106,0.31039,-0.336828,0.943655,-1.8105e-05
9.48485,0.10403,0.373277,0.309507,-0.349004,0.947214,-1.81208e-05
9.52182,0.106264,0.374454,0.308629,-0.360873,0.950806,-1.81364e-05
9.55949,0.108469,0.375635,0.307757,-0.372429,0.954421,-1.81521e-05
9.60038,0.110647,0.376818,0.306891,-0.383673,0.958054,-1.81676e-05
9.63683,0.112797,0.378003,0.306031,-0.394598,0.961696,-1.81832e-05
9.67364,0.11492,0.379188,0.305178,-0.40521,0.965341,-1.81986e-05
9.71728,0.117013,0.380371,0.304331,-0.4155,0.968982,-1.8214e-05
9.76933,0.119079,0.381552,0.303491,-0.425474,0.972612,-1.82293e-05
9.81168,0.121116,0.382728,0.302658,-0.435126,0.976223,-1.82444e-05
9.85041,0.123125,0.383897,0.301833,-0.444457,0.97981,-1.82595e-05
9.89691,0.125105,0.38506,0.301014,-0.453471,0.983367,-1.82745e-05
9.95195,0.127056,0.386213,0.300203,-0.462166,0.986888,-1.82894e-05
9.99469,0.12898,0.387357,0.2994,-0.470547,0.990368,-1.83043e-05
10.0346,0.130875,0.388489,0.298605,-0.478612,0.993801,-1.83191e-05
10.0794,0.132743,0.389609,0.297818,-0.486366,0.997183,-1.83338e-05
10.1167,0.134584,0.390714,0.297039,-0.49381,1.00051,-1.83485e-05
10.1542,0.136396,0.391804,0.296269,-0.500944,1.00377,-1.83631e-05
10.197,0.138182,0.392878,0.295508,-0.507773,1.00697,-1.83777e-05
10.2306,0.139941,0.393933,0.294756,-0.514298,1.0101,-1.83922e-05
10.2572,0.141673,0.39497,0.294014,-0.520523,1.01316,-1.84066e-05
10.2812,0.143379,0.395986,0.293281,-0.526449,1.01615,-1.84209e-05
10.3068,0.145058,0.396981,0.292558,-0.532079,1.01905,-1.84352e-05
10.3366,0.146712,0.397953,0.291846,-0.537415,1.02187,-1.84493e-05
10.3702,0.14834,0.398901,0.291145,-0.542458,1.0246,-1.84634e-05
10.3985,0.149943,0.399825,0.290454,-0.547213,1.02724,-1.84773e-05
10.4251,0.151521,0.400722,0.289775,-0.551679,1.02979,-1.84911e-05
10.4474,0.153073,0.401591,0.289108,-0.555859,1.03225,-1.85048e-05
10.469,0.154601,0.402433,0.288453,-0.559755,1.03461,-1.85183e-05
10.4925,0.156104,0.403245,0.287811,-0.563369,1.03687,-1.85317e-05
10.5183,0.157583,0.404026,0.287181,-0.566702,1.03902,-1.8545e-05
10.5472,0.159037,0.404777,0.286566,-0.569755,1.04107,-1.85581e-05
10.5697,0.160467,0.405494,0.285963,-0.572529,1.04302,-1.8571e-05
10.5898,0.161873,0.406178,0.285376,-0.575025,1.04485,-1.85837e-05
10.6105,0.163255,0.406827,0.284803,-0.577243,1.04657,-1.85963e-05
10.6279,0.164612,0.407441,0.284245,-0.579184,1.04818,-1.86086e-05
10.6433,0.165945,0.408019,0.283702,-0.580849,1.04967,-1.86208e-05
10.6584,0.167253,0.408559,0.283176,-0.582236,1.05105,-1.86328e-05
10.673,0.168537,0.409062,0.282667,-0.583346,1.0523,-1.86446e-05
10.6875,0.169796,0.409525,0.282174,-0.584178,1.05343,-1.86561e-05
10.7017,0.17103,0.409949,0.2817,-0.584731,1.05444,-1.86675e-05
10.7159,0.172238,0.410332,0.281243,-0.585005,1.05532,-1.86786e-05
10.7297,0.173421,0.410674,0.280805,-0.585,1.05608,-1.86895e-05
10.7438,0.174577,0.410975,0.280386,-0.584712,1.0567,-1.87001e-05
10.7579,0.175708,0.411234,0.279986,-0.584142,1.05719,-1.87105e-05
10.7721,0.176813,0.41145,0.279606,-0.583287,1.05755,-1.87207e-05
10.7877,0.177892,0.411623,0.279246,-0.582144,1.05778,-1.87307e-05
10.8055,0.178944,0.411752,0.278907,-0.58071,1.05786,-1.87404e-05
10.8239,0.179968,0.411838,0.278589,-0.578984,1.05781,-1.87499e-05
10.8469,0.180964,0.41188,0.278292,-0.576963,1.05762,-1.87591e-05
10.8727,0.181932,0.411878,0.278018,-0.574644,1.05729,-1.87681e-05
10.8955,0.18287,0.411831,0.277766,-0.572022,1.05681,-1.87769e-05
10.9197,0.183779,0.41174,0.277537,-0.569096,1.05619,-1.87854e-05
10.9511,0.184657,0.411605,0.277331,-0.56586,1.05543,-1.87937e-05
10.9787,0.185505,0.411425,0.277149,-0.562311,1.05451,-1.88017e-05
11.003,0.186321,0.411201,0.276991,-0.558444,1.05345,-1.88096e-05
11.0256,0.187105,0.410933,0.276857,-0.554256,1.05224,-1.88172e-05
11.0499,0.187856,0.410621,0.276748,-0.54974,1.05088,-1.88246e-05
11.079,0.188574,0.410266,0.276665,-0.544891,1.04936,-1.88318e-05
11.1068,0.189257,0.409868,0.276607,-0.539704,1.0477,-1.88388e-05
11.1367,0.189906,0.409428,0.276576,-0.534173,1.04588,-1.88457e-05
11.1731,0.190519,0.408946,0.276571,-0.528293,1.04391,-1.88523e-05
11.2062,0.191095,0.408422,0.276593,-0.522056,1.04179,-1.88588e-05
11.2401,0.191635,0.407858,0.276642,-0.515456,1.03951,-1.88652e-05
11.2816,0.192137,0.407254,0.276719,-0.508487,1.03709,-1.88714e-05
11.3191,0.1926,0.406612,0.276824,-0.50114,1.03451,-1.88775e-05
11.3511,0.193024,0.40593,0.276958,-0.49341,1.03178,-1.88835e-05
11.3815,0.193408,0.405212,0.277122,-0.485288,1.02891,-1.88894e-05
11.4165,0.193751,0.404458,0.277315,-0.476765,1.02588,-1.88952e-05
11.4544,0.194053,0.403668,0.277538,-0.467837,1.02271,-1.8901e-05
11.4993,0.194313,0.402845,0.277792,-0.458495,1.0194,-1.89067e-05
11.5393,0.194531,0.401989,0.278077,-0.448734,1.01595,-1.89123e-05
11.5782,0.194705,0.401101,0.278394,-0.438539,1.01237,-1.89179e-05
11.623,0.194835,0.400184,0.278743,-0.427908,1.00865,-1.89233e-05
11.6645,0.194921,0.399239,0.279126,-0.416833,1.00481,-1.89286e-05
11.7088,0.194962,0.398266,0.279542,-0.405306,1.00084,-1.89336e-05
11.7631,0.194958,0.397269,0.279992,-0.393325,0.996764,-1.89382e-05
11.8167,0.194909,0.396249,0.280477,-0.380879,0.992578,-1.89426e-05
11.8834,0.194815,0.395207,0.280998,-0.367962,0.98829,-1.89467e-05
11.9421,0.194676,0.394145,0.281554,-0.354571,0.983911,-1.89505e-05
11.9919,0.194491,0.393067,0.282147,-0.340708,0.979451,-1.89543e-05
12.0478,0.194261,0.391973,0.282777,-0.326361,0.974916,-1.89579e-05
12.0975,0.193987,0.390866,0.283444,-0.311536,0.97032,-1.89615e-05
12.1468,0.193669,0.389749,0.284149,-0.296227,0.965673,-1.8965e-05
12.2041,0.193308,0.388624,0.284892,-0.280442,0.960987,-1.89684e-05
12.2574,0.192904,0.387493,0.285674,-0.264185,0.956278,-1.89719e-05
12.3222,0.19246,0.386359,0.286494,-0.247454,0.951556,-1.89752e-05
12.4115,0.191976,0.385225,0.287353,-0.230261,0.946837,-1.89784e-05
12.4863,0.191454,0.384093,0.28825,-0.212619,0.942136,-1.89815e-05
12.5717,0.190896,0.382967,0.289187,-0.194529,0.937466,-1.89846e-05
12.638,0.190303,0.381848,0.290161,-0.176017,0.932845,-1.89876e-05
12.6924,0.189679,0.380739,0.291173,-0.157096,0.928288,-1.89905e-05
12.7409,0.189026,0.379644,0.292223,-0.137784,0.923811,-1.89935e-05
12.7947,0.188345,0.378565,0.293308,-0.118102,0.919428,-1.89965e-05
12.858,0.187641,0.377504,0.29443,-0.0980699,0.915154,-1.89995e-05
12.9135,0.186916,0.376464,0.295586,-0.0777241,0.911007,-1.90025e-05
12.9649,0.186173,0.375447,0.296776,-0.0570889,0.906998,-1.90055e-05
13.0241,0.185416,0.374456,0.297997,-0.0361932,0.903141,-1.90086e-05
13.0866,0.184648,0.373492,0.299249,-0.0150739,0.899449,-1.90117e-05
13.1419,0.183874,0.372558,0.300529,0.00623127,0.895934,-1.90148e-05
13.1892,0.183095,0.371656,0.301836,0.0276856,0.892605,-1.90178e-05
13.2335,0.182317,0.370787,0.303168,0.0492514,0.889472,-1.90207e-05
13.2828,0.181543,0.369952,0.304521,0.0708883,0.886541,-1.90235e-05
13.3385,0.180776,0.369153,0.305895,0.0925557,0.883818,-1.90263e-05
13.3891,0.18002,0.368391,0.307286,0.114213,0.881308,-1.9029e-05
13.4389,0.179279,0.367666,0.308692,0.135821,0.879012,-1.90318e-05
13.4948,0.178556,0.36698,0.31011,0.157336,0.876931,-1.90346e-05
13.55,0.177854,0.366332,0.311538,0.178719,0.875065,-1.90375e-05
13.5999,0.177177,0.365723,0.312972,0.199932,0.873411,-1.90404e-05
13.6527,0.176528,0.365152,0.314411,0.220934,0.871966,-1.90433e-05
13.7153,0.17591,0.36462,0.31585,0.241685,0.870725,-1.90462e-05
13.781,0.175325,0.364127,0.317287,0.262153,0.86968,-1.9049e-05
13.837,0.174776,0.363671,0.31872,0.282306,0.868825,-1.90518e-05
13.8963,0.174265,0.363252,0.320144,0.302107,0.86815,-1.90548e-05
13.9652,0.173794,0.36287,0.321558,0.321531,0.867646,-1.90579e-05
14.0221,0.173364,0.362523,0.322958,0.340553,0.867303,-1.90612e-05
14.0726,0.172979,0.362211,0.324343,0.359151,0.867108,-1.90647e-05
14.1297,0.172639,0.361932,0.325707,0.377293,0.867052,-1.90683e-05
14.1968,0.172345,0.361686,0.327051,0.39497,0.867122,-1.90719e-05
14.2812,0.172098,0.361471,0.328369,0.412151,0.867305,-1.90755e-05
14.3431,0.1719,0.361287,0.329661,0.428839,0.86759,-1.90791e-05
14.3913,0.171751,0.361131,0.330924,0.445011,0.867966,-1.90827e-05
14.436,0.171651,0.361003,0.332154,0.460657,0.868419,-1.90862e-05
14.4754,0.171601,0.360902,0.33335,0.475766,0.868938,-1.90896e-05
14.516,0.171602,0.360827,0.334509,0.490337,0.869511,-1.9093e-05
14.5628,0.171653,0.360776,0.335629,0.504354,0.870128,-1.90962e-05
14.6161,0.171755,0.360748,0.336708,0.517816,0.870777,-1.90994e-05
14.6601,0.171908,0.360742,0.337743,0.530724,0.871449,-1.91024e-05
14.6966,0.172111,0.360758,0.338732,0.543068,0.872133,-1.91053e-05
14.7283,0.172365,0.360794,0.339673,0.554849,0.872819,-1.91081e-05
14.7602,0.172669,0.360849,0.340564,0.56606,0.8735,-1.91107e-05
14.7935,0.173023,0.360922,0.341402,0.576707,0.874166,-1.91133e-05
14.8252,0.173427,0.361013,0.342186,0.586787,0.87481,-1.91157e-05
14.8588,0.17388,0.361121,0.342913,0.596296,0.875423,-1.9118e-05
14.896,0.174382,0.361244,0.343581,0.605233,0.876,-1.91202e-05
14.9367,0.174934,0.361384,0.344189,0.613599,0.876534,-1.91222e-05
14.971,0.175533,0.361537,0.344733,0.62139,0.877019,-1.9124e-05
15.0057,0.176181,0.361705,0.345212,0.628605,0.877448,-1.91255e-05
15.0433,0.176877,0.361887,0.345623,0.635244,0.877818,-1.91269e-05
15.0742,0.17762,0.362082,0.345966,0.641302,0.878124,-1.9128e-05
15.105,0.17841,0.362289,0.346237,0.646778,0.878362,-1.9129e-05
15.1391,0.179246,0.362509,0.346435,0.651668,0.878528,-1.913e-05
15.1708,0.180129,0.362741,0.346559,0.655968,0.878619,-1.9131e-05
15.2038,0.181057,0.362985,0.346606,0.659675,0.878633,-1.91319e-05
15.2297,0.18203,0.36324,0.346574,0.662784,0.878567,-1.91329e-05
15.255,0.183048,0.363507,0.346463,0.66529,0.878421,-1.9134e-05
15.2776,0.184111,0.363785,0.346271,0.66719,0.878192,-1.91351e-05
15.2999,0.185217,0.364075,0.345997,0.668476,0.877881,-1.91363e-05
15.3209,0.186366,0.364376,0.34564,0.669145,0.877488,-1.91376e-05
15.3428,0.187558,0.364688,0.345199,0.669192,0.877013,-1.9139e-05
15.3635,0.188793,0.365012,0.344674,0.66861,0.876457,-1.91405e-05
15.3855,0.190072,0.365348,0.344063,0.667393,0.875823,-1.91421e-05
15.4081,0.191392,0.365696,0.343366,0.665535,0.875112,-1.91438e-05
15.4342,0.192755,0.366057,0.342584,0.663031,0.874328,-1.91455e-05
15.461,0.194159,0.366431,0.341717,0.659873,0.873475,-1.91472e-05
15.4956,0.195604,0.366819,0.340764,0.656057,0.872556,-1.91488e-05
15.5268,0.197091,0.367222,0.339726,0.651575,0.871577,-1.91504e-05
15.5561,0.19862,0.367639,0.338604,0.646422,0.870544,-1.91517e-05
15.5924,0.20019,0.368072,0.337399,0.640592,0.869463,-1.91528e-05
15.6335,0.201801,0.368522,0.33611,0.634077,0.868341,-1.91535e-05
15.6697,0.203455,0.36899,0.33474,0.626874,0.867187,-1.91539e-05
15.7056,0.20515,0.369477,0.333289,0.618973,0.866008,-1.91541e-05
15.7492,0.206889,0.369985,0.331757,0.610369,0.864815,-1.91541e-05
15.789,0.20867,0.370514,0.330147,0.601057,0.863618,-1.91539e-05
15.8255,0.210496,0.371066,0.328459,0.591029,0.862427,-1.91536e-05
15.8603,0.212365,0.371643,0.326696,0.580283,0.861256,-1.91531e-05
15.8997,0.21428,0.372246,0.324856,0.56881,0.860117,-1.91523e-05
15.9488,0.21624,0.372877,0.322943,0.556607,0.859025,-1.91514e-05
16.0026,0.218247,0.373538,0.320956,0.543672,0.857993,-1.91503e-05
16.0503,0.220301,0.374231,0.318899,0.529998,0.857038,-1.91491e-05
16.1009,0.222402,0.374959,0.316771,0.515589,0.856177,-1.91477e-05
16.1647,0.224552,0.375722,0.314575,0.500443,0.855427,-1.91461e-05
16.225,0.226751,0.376525,0.312312,0.484566,0.854806,-1.91446e-05
16.2765,0.229,0.377368,0.309984,0.467959,0.854336,-1.9143e-05
16.3316,0.231298,0.378254,0.307592,0.450632,0.854034,-1.91415e-05
16.4002,0.233646,0.379186,0.305139,0.432595,0.853922,-1.914e-05
16.4688,0.236044,0.380167,0.302626,0.413864,0.854021,-1.91385e-05
16.5534,0.238492,0.381198,0.300056,0.394453,0.854352,-1.9137e-05
16.6222,0.24099,0.382282,0.29743,0.374389,0.854936,-1.91354e-05
16.686,0.243535,0.383422,0.294751,0.353697,0.855794,-1.91337e-05
16.7615,0.246129,0.384621,0.292022,0.332397,0.856947,-1.91317e-05
16.8246,0.248769,0.385879,0.289246,0.310536,0.858415,-1.91295e-05
16.8772,0.251454,0.3872,0.286425,0.288151,0.860216,-1.91272e-05
16.9277,0.254182,0.388585,0.283564,0.265283,0.862367,-1.91249e-05
16.9861,0.25695,0.390035,0.280665,0.241986,0.864882,-1.91227e-05
17.0571,0.259754,0.391553,0.277732,0.218313,0.867776,-1.91208e-05
17.1466,0.262593,0.393138,0.274771,0.194321,0.871057,-1.9119e-05
17.2182,0.265463,0.394792,0.271783,0.170068,0.874734,-1.91175e-05
17.2765,0.268362,0.396517,0.268772,0.145597,0.878814,-1.9116e-05
17.3285,0.271282,0.39831,0.265745,0.121002,0.883295,-1.91145e-05
17.3851,0.27422,0.400171,0.262707,0.0963468,0.888172,-1.91131e-05
17.453,0.277173,0.4021,0.259659,0.0716797,0.893444,-1.91116e-05
17.5324,0.280136,0.404096,0.256606,0.0470718,0.899101,-1.91101e-05
17.8992,0.283102,0.406155,0.253555,0.0225944,0.905128,-1.91086e-05
