swri-robotics/RPI-Tesseract-Motion-Planning/robot_motion_planning/task_data/tesseract_output/curve1_base_frame/movej_waypoints.csv
t,j1,j2,j3,j4,j5,j6
0,-0.292032,0.33163,0.389869,-0.190021,0.8139,-3.7072e-05
0.0642652,-0.290852,0.331139,0.390538,-0.190064,0.813897,-3.70721e-05
0.093089,-0.289677,0.33065,0.391203,-0.190042,0.813902,-3.70722e-05
0.132668,-0.288507,0.330162,0.391864,-0.189957,0.813917,-3.70724e-05
0.159696,-0.287341,0.329676,0.392522,-0.189807,0.813942,-3.70727e-05
0.18607,-0.286181,0.32919,0.393176,-0.189594,0.813975,-3.70731e-05
0.222834,-0.285025,0.328706,0.393826,-0.189316,0.814017,-3.70737e-05
0.250696,-0.283874,0.328224,0.394473,-0.188974,0.814068,-3.70744e-05
0.282935,-0.282728,0.327742,0.395116,-0.188569,0.814127,-3.70752e-05
0.30773,-0.281587,0.327262,0.395755,-0.188099,0.814195,-3.70761e-05
0.332826,-0.280451,0.326783,0.396392,-0.187564,0.814271,-3.70772e-05
0.352411,-0.27932,0.326306,0.397024,-0.186966,0.814356,-3.70784e-05
0.368695,-0.278194,0.325829,0.397653,-0.186304,0.814448,-3.70797e-05
0.382801,-0.277073,0.325354,0.398279,-0.185577,0.814549,-3.70812e-05
0.396678,-0.275957,0.324879,0.398902,-0.184786,0.814657,-3.70828e-05
0.412574,-0.274846,0.324406,0.399521,-0.183931,0.814773,-3.70845e-05
0.430861,-0.27374,0.323934,0.400137,-0.183012,0.814896,-3.70863e-05
0.447291,-0.272639,0.323463,0.40075,-0.182028,0.815028,-3.70883e-05
0.464477,-0.271543,0.322993,0.401359,-0.180981,0.815166,-3.70904e-05
0.484223,-0.270451,0.322525,0.401966,-0.179869,0.815312,-3.70926e-05
0.501561,-0.269366,0.322057,0.402569,-0.178694,0.815466,-3.7095e-05
0.51927,-0.268285,0.32159,0.403169,-0.177454,0.815627,-3.70974e-05
0.539691,-0.267209,0.321125,0.403767,-0.17615,0.815795,-3.71e-05
0.557398,-0.266138,0.32066,0.404361,-0.174782,0.81597,-3.71028e-05
0.575233,-0.265073,0.320197,0.404953,-0.173351,0.816152,-3.71056e-05
0.595808,-0.264012,0.319735,0.405541,-0.171855,0.816342,-3.71086e-05
0.613818,-0.262957,0.319274,0.406127,-0.170296,0.816538,-3.71117e-05
0.633201,-0.261907,0.318813,0.40671,-0.168673,0.816742,-3.7115e-05
0.656973,-0.260862,0.318354,0.40729,-0.166986,0.816952,-3.71183e-05
0.677084,-0.259823,0.317896,0.407868,-0.165235,0.81717,-3.71218e-05
0.698275,-0.258788,0.317439,0.408443,-0.163421,0.817394,-3.71254e-05
0.725594,-0.257759,0.316983,0.409015,-0.161544,0.817626,-3.71292e-05
0.747603,-0.256735,0.316528,0.409585,-0.159603,0.817865,-3.7133e-05
0.768362,-0.255716,0.316075,0.410152,-0.157599,0.81811,-3.7137e-05
0.793469,-0.254703,0.315622,0.410717,-0.155532,0.818363,-3.71412e-05
0.814181,-0.253694,0.31517,0.411279,-0.153402,0.818622,-3.71454e-05
0.831303,-0.252691,0.31472,0.411839,-0.151209,0.818889,-3.71498e-05
0.846648,-0.251693,0.31427,0.412397,-0.148953,0.819163,-3.71542e-05
0.862636,-0.250701,0.313822,0.412953,-0.146635,0.819444,-3.71588e-05
0.882045,-0.249714,0.313374,0.413506,-0.144254,0.819732,-3.71636e-05
0.905815,-0.248731,0.312928,0.414057,-0.141811,0.820027,-3.71684e-05
0.926643,-0.247755,0.312483,0.414606,-0.139306,0.82033,-3.71734e-05
0.945507,-0.246783,0.312039,0.415153,-0.136739,0.82064,-3.71785e-05
0.962673,-0.245817,0.311596,0.415699,-0.13411,0.820957,-3.71837e-05
0.981234,-0.244856,0.311155,0.416242,-0.131419,0.821282,-3.7189e-05
1.00261,-0.243901,0.310714,0.416783,-0.128668,0.821614,-3.71944e-05
1.02276,-0.24295,0.310275,0.417323,-0.125855,0.821954,-3.72e-05
1.04658,-0.242005,0.309837,0.417861,-0.122982,0.822301,-3.72056e-05
1.07687,-0.241065,0.3094,0.418397,-0.120047,0.822656,-3.72114e-05
1.10343,-0.240131,0.308965,0.418931,-0.117053,0.823019,-3.72173e-05
1.13168,-0.239201,0.30853,0.419464,-0.113999,0.82339,-3.72233e-05
1.15633,-0.238277,0.308097,0.419995,-0.110885,0.823768,-3.72294e-05
1.18424,-0.237358,0.307666,0.420525,-0.107711,0.824155,-3.72356e-05
1.22091,-0.236445,0.307235,0.421054,-0.104479,0.82455,-3.72419e-05
1.25214,-0.235537,0.306806,0.421581,-0.101189,0.824953,-3.72484e-05
1.28838,-0.234633,0.306378,0.422107,-0.0978392,0.825364,-3.72549e-05
1.31766,-0.233735,0.305952,0.422632,-0.0944323,0.825784,-3.72615e-05
1.3474,-0.232843,0.305527,0.423156,-0.090968,0.826212,-3.72683e-05
1.3853,-0.231955,0.305103,0.423678,-0.0874465,0.826649,-3.72752e-05
1.41434,-0.231072,0.304681,0.4242,-0.0838684,0.827094,-3.72821e-05
1.4382,-0.230195,0.304261,0.42472,-0.0802343,0.827549,-3.72892e-05
1.46525,-0.229323,0.303841,0.42524,-0.0765447,0.828012,-3.72965e-05
1.49897,-0.228455,0.303424,0.425759,-0.0727998,0.828484,-3.73039e-05
1.52713,-0.227593,0.303008,0.426277,-0.0690006,0.828966,-3.73114e-05
1.55404,-0.226736,0.302593,0.426794,-0.0651468,0.829456,-3.73191e-05
1.58614,-0.225883,0.30218,0.427311,-0.0612401,0.829956,-3.73269e-05
1.61744,-0.225036,0.301769,0.427827,-0.0572805,0.830465,-3.73349e-05
1.65485,-0.224193,0.301359,0.428343,-0.0532681,0.830984,-3.7343e-05
1.68546,-0.223356,0.300951,0.428858,-0.0492048,0.831512,-3.73513e-05
1.71502,-0.222523,0.300545,0.429373,-0.0450905,0.832051,-3.73597e-05
1.75036,-0.221695,0.30014,0.429888,-0.0409255,0.832598,-3.73682e-05
1.78003,-0.220871,0.299737,0.430402,-0.0367114,0.833156,-3.73768e-05
1.80896,-0.220053,0.299336,0.430917,-0.0324486,0.833724,-3.73856e-05
1.84481,-0.219238,0.298937,0.431431,-0.0281377,0.834301,-3.73944e-05
1.88265,-0.218429,0.298539,0.431945,-0.023779,0.834889,-3.74034e-05
1.93272,-0.217623,0.298144,0.432459,-0.019374,0.835487,-3.74125e-05
1.97085,-0.216823,0.29775,0.432974,-0.0149237,0.836095,-3.74218e-05
2.00868,-0.216026,0.297358,0.433488,-0.0104288,0.836714,-3.74311e-05
2.05034,-0.215234,0.296968,0.434003,-0.0058902,0.837343,-3.74406e-05
2.11195,-0.214446,0.296581,0.434518,-0.00130846,0.837982,-3.74501e-05
2.15124,-0.213663,0.296195,0.435033,0.00331553,0.838632,-3.74598e-05
2.18172,-0.212883,0.295811,0.435549,0.00798034,0.839292,-3.74696e-05
2.21744,-0.212107,0.295429,0.436066,0.0126858,0.839963,-3.74795e-05
2.25445,-0.211335,0.295049,0.436583,0.0174305,0.840644,-3.74895e-05
2.30109,-0.210567,0.294671,0.4371,0.0222133,0.841336,-3.74996e-05
2.33722,-0.209803,0.294296,0.437619,0.0270328,0.842039,-3.75098e-05
2.37147,-0.209042,0.293922,0.438137,0.0318874,0.842752,-3.75201e-05
2.4133,-0.208285,0.293551,0.438657,0.0367784,0.843475,-3.75306e-05
2.44651,-0.207532,0.293182,0.439178,0.0417015,0.84421,-3.75411e-05
2.476,-0.206781,0.292815,0.4397,0.0466571,0.844954,-3.75518e-05
2.51109,-0.206034,0.29245,0.440222,0.0516445,0.845709,-3.75625e-05
2.55029,-0.20529,0.292088,0.440746,0.0566626,0.846475,-3.75734e-05
2.60206,-0.204549,0.291728,0.441271,0.0617098,0.84725,-3.75843e-05
2.64344,-0.203811,0.29137,0.441797,0.0667835,0.848036,-3.75954e-05
2.68889,-0.203076,0.291014,0.442324,0.0718839,0.848833,-3.76066e-05
2.7244,-0.202344,0.290661,0.442852,0.0770097,0.849639,-3.76179e-05
2.75903,-0.201614,0.29031,0.443382,0.0821597,0.850455,-3.76293e-05
2.80117,-0.200886,0.289962,0.443913,0.0873324,0.851281,-3.76408e-05
2.83589,-0.200161,0.289615,0.444445,0.0925268,0.852117,-3.76524e-05
2.87097,-0.199438,0.289271,0.444979,0.0977413,0.852963,-3.76642e-05
2.91425,-0.198717,0.28893,0.445514,0.102974,0.853817,-3.7676e-05
2.94854,-0.197997,0.288591,0.446051,0.108223,0.854681,-3.76879e-05
2.97893,-0.19728,0.288254,0.446589,0.113488,0.855554,-3.77e-05
3.01819,-0.196564,0.28792,0.447129,0.118767,0.856436,-3.77121e-05
3.07573,-0.19585,0.287588,0.44767,0.12406,0.857327,-3.77244e-05
3.11646,-0.195137,0.287259,0.448213,0.129364,0.858225,-3.77368e-05
3.15225,-0.194425,0.286931,0.448758,0.134677,0.859132,-3.77493e-05
3.1949,-0.193714,0.286607,0.449304,0.140001,0.860047,-3.77619e-05
3.2303,-0.193004,0.286285,0.449852,0.145331,0.86097,-3.77746e-05
3.26758,-0.192295,0.285965,0.450402,0.150666,0.8619,-3.77874e-05
3.31541,-0.191586,0.285647,0.450953,0.156007,0.862837,-3.78003e-05
3.35432,-0.190878,0.285332,0.451507,0.16135,0.86378,-3.78133e-05
3.39329,-0.19017,0.28502,0.452062,0.166695,0.864731,-3.78265e-05
3.42582,-0.189462,0.284709,0.452618,0.172039,0.865687,-3.78397e-05
3.46091,-0.188754,0.284402,0.453177,0.177381,0.866648,-3.78531e-05
3.50481,-0.188046,0.284096,0.453736,0.182719,0.867615,-3.78665e-05
3.54039,-0.187337,0.283793,0.454298,0.188052,0.868587,-3.78801e-05
3.57554,-0.186628,0.283492,0.454861,0.19338,0.869564,-3.78938e-05
3.61827,-0.185918,0.283194,0.455426,0.198699,0.870544,-3.79076e-05
3.65367,-0.185207,0.282898,0.455993,0.20401,0.871529,-3.79215e-05
3.69121,-0.184495,0.282604,0.456562,0.209309,0.872517,-3.79355e-05
3.73969,-0.183782,0.282313,0.457131,0.214597,0.873507,-3.79496e-05
3.77696,-0.183067,0.282023,0.457703,0.219871,0.8745,-3.79638e-05
3.81141,-0.182351,0.281736,0.458276,0.225129,0.875495,-3.79781e-05
3.85274,-0.181632,0.281452,0.45885,0.230371,0.876491,-3.79926e-05
3.88729,-0.180912,0.281169,0.459426,0.235595,0.877489,-3.80071e-05
3.91546,-0.18019,0.280889,0.460004,0.240799,0.878487,-3.80217e-05
3.94537,-0.179466,0.280611,0.460582,0.245981,0.879484,-3.80365e-05
3.9834,-0.178739,0.280335,0.461162,0.251141,0.880482,-3.80513e-05
4.02633,-0.178009,0.280061,0.461743,0.256277,0.881478,-3.80663e-05
4.066,-0.177276,0.279789,0.462326,0.261388,0.882472,-3.80813e-05
4.09721,-0.176541,0.279519,0.462909,0.266472,0.883465,-3.80965e-05
4.12883,-0.175802,0.279251,0.463493,0.271528,0.884454,-3.81118e-05
4.16613,-0.17506,0.278985,0.464079,0.276554,0.885441,-3.81271e-05
4.1979,-0.174315,0.278721,0.464665,0.281549,0.886423,-3.81426e-05
4.23128,-0.173565,0.278459,0.465252,0.286512,0.887402,-3.81582e-05
4.27219,-0.172812,0.278199,0.465839,0.291441,0.888375,-3.81738e-05
4.30697,-0.172055,0.277941,0.466427,0.296335,0.889343,-3.81896e-05
4.34589,-0.171294,0.277684,0.467016,0.301192,0.890304,-3.82054e-05
4.38526,-0.170528,0.277429,0.467604,0.306011,0.891259,-3.82213e-05
4.43836,-0.169758,0.277177,0.468193,0.310791,0.892207,-3.82374e-05
4.48044,-0.168983,0.276925,0.468782,0.315531,0.893146,-3.82535e-05
4.5117,-0.168203,0.276676,0.469371,0.320229,0.894077,-3.82697e-05
4.5423,-0.167419,0.276428,0.46996,0.324885,0.894999,-3.8286e-05
4.56916,-0.166629,0.276182,0.470549,0.329496,0.895911,-3.83023e-05
4.59983,-0.165833,0.275937,0.471137,0.334061,0.896813,-3.83187e-05
4.63779,-0.165033,0.275694,0.471725,0.33858,0.897704,-3.83353e-05
4.66948,-0.164226,0.275452,0.472311,0.34305,0.898583,-3.83518e-05
4.7032,-0.163414,0.275212,0.472898,0.347473,0.899451,-3.83685e-05
4.74555,-0.162595,0.274973,0.473483,0.351847,0.900306,-3.83853e-05
4.77958,-0.161771,0.274735,0.474067,0.356168,0.901147,-3.84022e-05
4.80507,-0.16094,0.274499,0.47465,0.360438,0.901975,-3.84192e-05
4.82705,-0.160103,0.274264,0.475231,0.364654,0.902788,-3.84363e-05
4.85142,-0.159259,0.27403,0.475811,0.368815,0.903586,-3.84536e-05
4.88276,-0.158408,0.273798,0.476388,0.37292,0.904368,-3.84709e-05
4.92336,-0.157551,0.273567,0.476964,0.376967,0.905134,-3.84884e-05
4.95482,-0.156686,0.273337,0.477538,0.380956,0.905883,-3.8506e-05
4.984,-0.155815,0.273108,0.478109,0.384887,0.906615,-3.85237e-05
5.0192,-0.154936,0.27288,0.478677,0.388756,0.907328,-3.85414e-05
5.05331,-0.15405,0.272654,0.479243,0.392565,0.908023,-3.85593e-05
5.09517,-0.153156,0.272428,0.479806,0.396311,0.908698,-3.85772e-05
5.12913,-0.152254,0.272203,0.480366,0.399994,0.909354,-3.85953e-05
5.16801,-0.151344,0.27198,0.480922,0.403613,0.90999,-3.86135e-05
5.1979,-0.150427,0.271757,0.481475,0.407165,0.910605,-3.86317e-05
5.22598,-0.149501,0.271535,0.482025,0.410651,0.911198,-3.86501e-05
5.25895,-0.148567,0.271314,0.48257,0.414069,0.911769,-3.86686e-05
5.28549,-0.147625,0.271094,0.483111,0.417418,0.912318,-3.86872e-05
5.31,-0.146674,0.270875,0.483647,0.420697,0.912843,-3.87059e-05
5.33766,-0.145714,0.270657,0.484179,0.423906,0.913345,-3.87247e-05
5.3617,-0.144745,0.270439,0.484707,0.427042,0.913823,-3.87435e-05
5.38174,-0.143768,0.270222,0.485229,0.430105,0.914276,-3.87625e-05
5.40267,-0.142782,0.270006,0.485746,0.433094,0.914704,-3.87816e-05
5.42743,-0.141786,0.269791,0.486257,0.436007,0.915106,-3.88007e-05
5.45201,-0.140781,0.269576,0.486762,0.438844,0.915482,-3.882e-05
5.47302,-0.139767,0.269362,0.487262,0.441603,0.915832,-3.88393e-05
5.49579,-0.138743,0.269149,0.487755,0.444283,0.916154,-3.88588e-05
5.52264,-0.137709,0.268936,0.488242,0.446883,0.916449,-3.88783e-05
5.54466,-0.136665,0.268724,0.488722,0.449403,0.916715,-3.88979e-05
5.56568,-0.135612,0.268513,0.489195,0.45184,0.916953,-3.89176e-05
5.58916,-0.134548,0.268302,0.489661,0.454193,0.917161,-3.89373e-05
5.60831,-0.133474,0.268092,0.49012,0.456461,0.91734,-3.89572e-05
5.6244,-0.13239,0.267883,0.490571,0.458644,0.917489,-3.89771e-05
5.64171,-0.131296,0.267674,0.491013,0.460739,0.917608,-3.89971e-05
5.66295,-0.130191,0.267466,0.491448,0.462745,0.917695,-3.90172e-05
5.6891,-0.129075,0.267259,0.491874,0.464661,0.917752,-3.90373e-05
5.71331,-0.127948,0.267052,0.492292,0.466486,0.917776,-3.90575e-05
5.74378,-0.12681,0.266845,0.4927,0.468218,0.917768,-3.90778e-05
5.7681,-0.125662,0.26664,0.493099,0.469856,0.917728,-3.90981e-05
5.78736,-0.124502,0.266435,0.493489,0.471398,0.917655,-3.91184e-05
5.80735,-0.12333,0.26623,0.493869,0.472842,0.917548,-3.91389e-05
5.82458,-0.122147,0.266027,0.494239,0.474188,0.917407,-3.91594e-05
5.83988,-0.120953,0.265824,0.494599,0.475433,0.917233,-3.91799e-05
5.85387,-0.119747,0.265622,0.494949,0.476576,0.917023,-3.92005e-05
5.86895,-0.11853,0.26542,0.495287,0.477615,0.916779,-3.92211e-05
5.88589,-0.1173,0.265219,0.495615,0.478549,0.9165,-3.92418e-05
5.90127,-0.116058,0.26502,0.495931,0.479375,0.916185,-3.92625e-05
5.91478,-0.114804,0.264821,0.496236,0.480092,0.915834,-3.92832e-05
5.92697,-0.113538,0.264622,0.496529,0.480698,0.915447,-3.9304e-05
5.93819,-0.112259,0.264425,0.496811,0.481191,0.915023,-3.93248e-05
5.94867,-0.110968,0.264229,0.49708,0.48157,0.914563,-3.93457e-05
5.95856,-0.109664,0.264033,0.497337,0.481831,0.914065,-3.93666e-05
5.968,-0.108346,0.263839,0.497581,0.481974,0.91353,-3.93875e-05
5.97725,-0.107016,0.263645,0.497812,0.481995,0.912958,-3.94085e-05
5.98652,-0.105672,0.263453,0.49803,0.481893,0.912347,-3.94295e-05
5.99588,-0.104314,0.263262,0.498235,0.481665,0.911699,-3.94506e-05
6.00532,-0.102942,0.263072,0.498427,0.481308,0.911012,-3.94717e-05
6.01493,-0.101557,0.262884,0.498605,0.480821,0.910286,-3.94928e-05
6.02463,-0.100157,0.262696,0.498768,0.480201,0.909522,-3.9514e-05
6.03457,-0.0987429,0.262511,0.498918,0.479444,0.908719,-3.95352e-05
6.04461,-0.0973141,0.262326,0.499054,0.478549,0.907877,-3.95565e-05
6.05496,-0.095871,0.262144,0.499175,0.477513,0.906997,-3.95778e-05
6.06541,-0.0944128,0.261963,0.499281,0.476332,0.906077,-3.95992e-05
6.07614,-0.0929397,0.261784,0.499372,0.475005,0.905118,-3.96206e-05
6.08693,-0.0914517,0.261607,0.499449,0.473527,0.904121,-3.96421e-05
6.09795,-0.0899481,0.261432,0.49951,0.471896,0.903084,-3.96637e-05
6.10905,-0.088429,0.261259,0.499556,0.470109,0.902009,-3.96853e-05
6.1207,-0.086894,0.261088,0.499586,0.468162,0.900896,-3.9707e-05
6.13343,-0.0853431,0.26092,0.499601,0.466052,0.899744,-3.97288e-05
6.14763,-0.0837759,0.260755,0.4996,0.463776,0.898554,-3.97507e-05
6.1639,-0.0821924,0.260592,0.499583,0.461331,0.897326,-3.97727e-05
6.18341,-0.0805921,0.260432,0.49955,0.458711,0.896061,-3.97947e-05
6.20664,-0.0789748,0.260276,0.499501,0.455915,0.894758,-3.98169e-05
6.22854,-0.0773404,0.260122,0.499436,0.452938,0.89342,-3.98393e-05
6.25335,-0.0756885,0.259972,0.499355,0.449776,0.892045,-3.98617e-05
6.28506,-0.074019,0.259826,0.499257,0.446426,0.890635,-3.98843e-05
6.31249,-0.0723314,0.259683,0.499143,0.442883,0.88919,-3.9907e-05
6.3372,-0.0706257,0.259545,0.499012,0.439143,0.887712,-3.99299e-05
6.35973,-0.0689016,0.259411,0.498865,0.435203,0.886201,-3.99528e-05
6.38428,-0.0671587,0.259281,0.498702,0.431057,0.884658,-3.99758e-05
6.41384,-0.0653969,0.259157,0.498522,0.426702,0.883085,-3.99989e-05
6.44188,-0.0636158,0.259037,0.498325,0.422134,0.881482,-4.00222e-05
6.46699,-0.0618149,0.258923,0.498112,0.417347,0.879851,-4.00455e-05
6.49437,-0.0599943,0.258815,0.497882,0.412337,0.878193,-4.0069e-05
6.52712,-0.0581536,0.258712,0.497636,0.407101,0.87651,-4.00925e-05
6.55617,-0.0562921,0.258616,0.497374,0.401631,0.874804,-4.01162e-05
6.5815,-0.0544102,0.258527,0.497095,0.395927,0.873076,-4.014e-05
6.60496,-0.0525072,0.258445,0.496799,0.389981,0.871329,-4.01639e-05
6.6298,-0.0505831,0.258371,0.496488,0.383791,0.869564,-4.01879e-05
6.65986,-0.0486376,0.258304,0.49616,0.377351,0.867785,-4.0212e-05
6.69634,-0.04667,0.258246,0.495816,0.370656,0.865993,-4.02362e-05
6.72948,-0.0446804,0.258196,0.495457,0.363702,0.864191,-4.02605e-05
6.76304,-0.0426681,0.258156,0.495081,0.356484,0.862382,-4.02849e-05
6.80229,-0.0406334,0.258126,0.49469,0.348999,0.86057,-4.03095e-05
6.83776,-0.0385756,0.258106,0.494283,0.341242,0.858756,-4.03341e-05
6.87132,-0.036495,0.258096,0.493861,0.33321,0.856946,-4.03588e-05
6.90219,-0.0343909,0.258098,0.493423,0.324898,0.855143,-4.03837e-05
6.93386,-0.0322635,0.258112,0.492971,0.316303,0.853349,-4.04087e-05
6.97123,-0.0301121,0.258139,0.492504,0.307421,0.851571,-4.04337e-05
7.01527,-0.0279369,0.258179,0.492022,0.298249,0.849811,-4.04589e-05
7.07071,-0.0257374,0.258232,0.491526,0.288783,0.848075,-4.04841e-05
7.11796,-0.0235141,0.2583,0.491015,0.279023,0.846367,-4.05093e-05
7.16734,-0.0212666,0.258383,0.490491,0.268966,0.844692,-4.05347e-05
7.23055,-0.018995,0.258482,0.489954,0.258611,0.843055,-4.05602e-05
7.28219,-0.0166992,0.258597,0.489403,0.247956,0.841463,-4.05857e-05
7.3331,-0.0143795,0.25873,0.488839,0.237003,0.839919,-4.06114e-05
7.39663,-0.0120352,0.258881,0.488263,0.225746,0.838431,-4.06371e-05
7.45255,-0.00966647,0.25905,0.487674,0.214188,0.837004,-4.06629e-05
7.51857,-0.00727418,0.259239,0.487073,0.202333,0.835643,-4.06888e-05
7.57228,-0.00485807,0.259449,0.486461,0.19018,0.834357,-4.07146e-05
7.6236,-0.00241849,0.259679,0.485837,0.177732,0.83315,-4.07405e-05
7.68526,4.41944e-05,0.259932,0.485202,0.164994,0.832029,-4.07665e-05
7.74029,0.00252965,0.260207,0.484557,0.15197,0.831001,-4.07926e-05
7.80192,0.005038,0.260505,0.483902,0.138661,0.830072,-4.08187e-05
7.85463,0.00756704,0.260828,0.483237,0.125084,0.829249,-4.0845e-05
7.90885,0.010118,0.261176,0.482563,0.111235,0.828539,-4.08713e-05
7.9759,0.0126895,0.26155,0.48188,0.0971267,0.827948,-4.08977e-05
8.03722,0.0152808,0.26195,0.481188,0.0827688,0.827482,-4.09243e-05
8.11204,0.0178913,0.262378,0.480489,0.0681698,0.827148,-4.09509e-05
8.17412,0.0205211,0.262833,0.479781,0.053336,0.826952,-4.09776e-05
8.22425,0.0231686,0.263318,0.479067,0.0382836,0.826899,-4.10044e-05
8.27789,0.0258315,0.263831,0.478346,0.0230327,0.826995,-4.10313e-05
8.34257,0.0285095,0.264374,0.477619,0.00759334,0.827245,-4.10583e-05
8.39842,0.0312023,0.264947,0.476886,-0.00802389,0.827655,-4.10854e-05
8.4512,0.0339075,0.265552,0.476148,-0.0237967,0.828228,-4.11126e-05
8.49818,0.0366246,0.266187,0.475405,-0.0397119,0.828968,-4.11399e-05
8.54988,0.0393523,0.266854,0.474657,-0.0557523,0.829879,-4.11673e-05
8.61125,0.0420885,0.267552,0.473906,-0.0718955,0.830964,-4.11949e-05
8.6628,0.0448329,0.268283,0.47315,-0.0881289,0.832224,-4.12225e-05
8.7061,0.0475838,0.269046,0.472392,-0.104432,0.833662,-4.12502e-05
8.74807,0.0503389,0.269841,0.471631,-0.12078,0.835279,-4.12781e-05
8.7961,0.0530967,0.270668,0.470868,-0.137154,0.837073,-4.1306e-05
8.85472,0.0558556,0.271527,0.470103,-0.153532,0.839046,-4.13341e-05
8.92872,0.058614,0.272417,0.469336,-0.169896,0.841195,-4.13623e-05
8.99477,0.0613704,0.273339,0.468568,-0.186224,0.84352,-4.13906e-05
9.07206,0.0641242,0.274292,0.4678,-0.202502,0.846018,-4.1419e-05
9.13281,0.0668732,0.275275,0.46703,-0.218708,0.848685,-4.14475e-05
9.18292,0.0696153,0.276288,0.466261,-0.234818,0.851519,-4.14761e-05
9.22759,0.0723488,0.277331,0.465491,-0.250813,0.854513,-4.15048e-05
9.27897,0.0750719,0.278402,0.464722,-0.266674,0.857662,-4.15336e-05
9.34017,0.0777818,0.279499,0.463954,-0.282374,0.86096,-4.15625e-05
9.39062,0.0804785,0.280623,0.463187,-0.297906,0.864401,-4.15914e-05
9.43275,0.0831604,0.281773,0.462422,-0.313252,0.867978,-4.16204e-05
9.47456,0.085826,0.282947,0.461657,-0.328397,0.871685,-4.16495e-05
9.52057,0.0884739,0.284144,0.460895,-0.343326,0.875513,-4.16786e-05
9.56467,0.0911029,0.285363,0.460134,-0.358024,0.879454,-4.17078e-05
9.60366,0.0937116,0.286602,0.459375,-0.37248,0.8835,-4.17371e-05
9.64431,0.0962987,0.287861,0.458618,-0.386681,0.887642,-4.17667e-05
9.68877,0.0988633,0.289137,0.457864,-0.400617,0.891872,-4.17964e-05
9.72757,0.101404,0.29043,0.457112,-0.414277,0.896179,-4.18263e-05
9.76216,0.103921,0.291738,0.456362,-0.427654,0.900556,-4.18563e-05
9.79947,0.106413,0.293059,0.455615,-0.440745,0.904996,-4.18864e-05
9.84318,0.108879,0.294392,0.454871,-0.453539,0.909487,-4.19165e-05
9.89335,0.111318,0.295736,0.454129,-0.46603,0.914021,-4.19467e-05
9.93551,0.113729,0.297088,0.453391,-0.478209,0.918586,-4.1977e-05
9.97288,0.116111,0.298446,0.452656,-0.490071,0.923175,-4.20072e-05
10.0146,0.118464,0.29981,0.451924,-0.501617,0.92778,-4.20374e-05
10.0623,0.120789,0.301177,0.451196,-0.512847,0.932392,-4.20674e-05
10.1071,0.123085,0.302547,0.450471,-0.523758,0.937004,-4.20974e-05
10.1563,0.125351,0.303918,0.449749,-0.534349,0.941608,-4.21272e-05
10.1997,0.127587,0.305287,0.449031,-0.544617,0.946195,-4.21569e-05
10.2356,0.129794,0.306654,0.448316,-0.554566,0.950759,-4.21865e-05
10.2719,0.13197,0.308016,0.447606,-0.564194,0.955292,-4.22163e-05
10.3115,0.134117,0.309374,0.446899,-0.573506,0.959789,-4.22461e-05
10.3457,0.136234,0.310724,0.446196,-0.582501,0.964241,-4.22759e-05
10.3779,0.138323,0.312066,0.445497,-0.591185,0.968646,-4.23059e-05
10.4133,0.140381,0.313398,0.444803,-0.599556,0.972995,-4.23359e-05
10.4523,0.14241,0.314718,0.444113,-0.607617,0.977283,-4.2366e-05
10.4968,0.14441,0.316026,0.443427,-0.615374,0.981507,-4.23962e-05
10.5341,0.146382,0.31732,0.442746,-0.622828,0.985659,-4.24264e-05
10.5724,0.148326,0.318598,0.44207,-0.629985,0.989738,-4.24567e-05
10.6179,0.150241,0.31986,0.441399,-0.636846,0.993738,-4.2487e-05
10.6594,0.15213,0.321104,0.440733,-0.643418,0.997656,-4.25173e-05
10.7064,0.153991,0.322329,0.440072,-0.649701,1.00149,-4.25477e-05
10.7416,0.155825,0.323534,0.439416,-0.655701,1.00523,-4.2578e-05
10.7699,0.157633,0.324717,0.438766,-0.66142,1.00888,-4.26084e-05
10.8003,0.159416,0.325878,0.438122,-0.666864,1.01244,-4.26388e-05
10.8336,0.161172,0.327015,0.437484,-0.672035,1.0159,-4.26692e-05
10.8719,0.162904,0.328127,0.436852,-0.676938,1.01925,-4.26995e-05
10.903,0.164611,0.329213,0.436227,-0.681575,1.02251,-4.27299e-05
10.9357,0.166294,0.330272,0.435609,-0.685949,1.02566,-4.27603e-05
10.9751,0.167953,0.331302,0.434997,-0.690065,1.0287,-4.27907e-05
11.0038,0.169588,0.332304,0.434393,-0.693924,1.03164,-4.28211e-05
11.0267,0.1712,0.333276,0.433796,-0.69753,1.03446,-4.28515e-05
11.0517,0.172789,0.334216,0.433207,-0.700885,1.03717,-4.28818e-05
11.0799,0.174355,0.335123,0.432626,-0.703992,1.03977,-4.29122e-05
11.1024,0.175899,0.335998,0.432054,-0.706852,1.04225,-4.29426e-05
11.1209,0.177421,0.336838,0.43149,-0.70947,1.04462,-4.29731e-05
11.1394,0.17892,0.337644,0.430935,-0.711845,1.04686,-4.30036e-05
11.1602,0.180398,0.338413,0.430389,-0.71398,1.04899,-4.30342e-05
11.1833,0.181853,0.339145,0.429854,-0.715875,1.05099,-4.30649e-05
11.2029,0.183287,0.339839,0.429328,-0.717533,1.05287,-4.30957e-05
11.2209,0.184699,0.340495,0.428813,-0.718953,1.05462,-4.31266e-05
11.2363,0.18609,0.34111,0.428308,-0.720137,1.05625,-4.31577e-05
11.25,0.187458,0.341685,0.427814,-0.721085,1.05775,-4.31888e-05
11.2636,0.188805,0.342219,0.427332,-0.721798,1.05912,-4.32201e-05
11.2767,0.19013,0.342711,0.426862,-0.722275,1.06036,-4.32514e-05
11.2898,0.191433,0.34316,0.426404,-0.722516,1.06147,-4.32829e-05
11.3027,0.192712,0.343566,0.425959,-0.72252,1.06244,-4.33145e-05
11.3155,0.193969,0.343927,0.425527,-0.722288,1.06328,-4.33462e-05
11.3284,0.195202,0.344244,0.425108,-0.721818,1.06398,-4.33779e-05
11.3413,0.196413,0.344515,0.424703,-0.721109,1.06454,-4.34099e-05
11.3549,0.197601,0.344741,0.424312,-0.720159,1.06495,-4.34419e-05
11.3702,0.198765,0.344921,0.423935,-0.718967,1.06523,-4.3474e-05
11.3875,0.199905,0.345054,0.423573,-0.71753,1.06536,-4.35062e-05
11.4045,0.201021,0.34514,0.423227,-0.715845,1.06535,-4.35385e-05
11.4239,0.202111,0.345179,0.422896,-0.713911,1.06518,-4.3571e-05
11.4485,0.203176,0.34517,0.42258,-0.711725,1.06487,-4.36035e-05
11.471,0.204214,0.345114,0.422282,-0.709284,1.0644,-4.36362e-05
11.4925,0.205226,0.34501,0.422,-0.706584,1.06378,-4.3669e-05
11.5128,0.20621,0.344857,0.421735,-0.703622,1.06301,-4.37018e-05
11.5363,0.207166,0.344657,0.421487,-0.700394,1.06208,-4.37348e-05
11.5663,0.208093,0.344409,0.421258,-0.696895,1.06098,-4.37679e-05
11.5931,0.208991,0.344113,0.421046,-0.693121,1.05973,-4.38011e-05
11.619,0.209858,0.34377,0.420854,-0.689067,1.05831,-4.38343e-05
11.6501,0.210695,0.343379,0.42068,-0.684729,1.05673,-4.38675e-05
11.6789,0.2115,0.342941,0.420526,-0.680099,1.05499,-4.39007e-05
11.7039,0.212272,0.342456,0.420391,-0.675173,1.05307,-4.3934e-05
11.7268,0.213011,0.341925,0.420276,-0.669944,1.05099,-4.39672e-05
11.7487,0.213716,0.341348,0.420183,-0.664406,1.04873,-4.40005e-05
11.7729,0.214386,0.340725,0.42011,-0.658552,1.0463,-4.40338e-05
11.8008,0.215021,0.340057,0.420058,-0.652375,1.0437,-4.40671e-05
11.8284,0.215618,0.339345,0.420028,-0.645866,1.04093,-4.41004e-05
11.8602,0.216178,0.338589,0.420021,-0.63902,1.03798,-4.41338e-05
11.8994,0.2167,0.337791,0.420037,-0.631826,1.03486,-4.41671e-05
11.9377,0.217182,0.33695,0.420076,-0.624277,1.03156,-4.42005e-05
11.9827,0.217624,0.336068,0.420138,-0.616364,1.02809,-4.4234e-05
12.0212,0.218025,0.335146,0.420226,-0.60808,1.02444,-4.42675e-05
12.0536,0.218384,0.334185,0.420338,-0.599417,1.02062,-4.4301e-05
12.0829,0.2187,0.333185,0.420476,-0.590361,1.01664,-4.43347e-05
12.1117,0.218972,0.332149,0.42064,-0.580906,1.01248,-4.43684e-05
12.144,0.2192,0.331077,0.42083,-0.571043,1.00816,-4.44021e-05
12.1785,0.219383,0.329971,0.421049,-0.560762,1.00367,-4.4436e-05
12.2189,0.219519,0.328833,0.421295,-0.550058,0.99903,-4.44699e-05
12.2642,0.21961,0.327664,0.42157,-0.538918,0.994235,-4.4504e-05
12.3191,0.219654,0.326465,0.421874,-0.527333,0.98929,-4.45381e-05
12.3675,0.21965,0.325238,0.422209,-0.515297,0.984204,-4.45723e-05
12.4175,0.219599,0.323987,0.422574,-0.502807,0.978986,-4.46066e-05
12.4793,0.219499,0.322712,0.422971,-0.489848,0.973639,-4.46409e-05
12.5315,0.219352,0.321416,0.423401,-0.476421,0.968177,-4.46751e-05
12.5756,0.219157,0.3201,0.423862,-0.462515,0.962607,-4.47092e-05
12.6212,0.218915,0.318769,0.424358,-0.448133,0.956942,-4.47431e-05
12.6743,0.218626,0.317424,0.424886,-0.433274,0.951194,-4.47771e-05
12.7237,0.21829,0.316067,0.42545,-0.417929,0.945374,-4.4811e-05
12.7801,0.217909,0.314703,0.426048,-0.402105,0.939497,-4.4845e-05
12.8515,0.217484,0.313333,0.426681,-0.385806,0.933579,-4.4879e-05
12.9114,0.217015,0.31196,0.42735,-0.369028,0.927632,-4.4913e-05
12.968,0.216506,0.310587,0.428054,-0.351788,0.921676,-4.49471e-05
13.0345,0.215956,0.309219,0.428793,-0.334091,0.915726,-4.49811e-05
13.092,0.215369,0.307857,0.429568,-0.315949,0.9098,-4.50149e-05
13.1476,0.214747,0.306504,0.430378,-0.297375,0.903915,-4.50484e-05
13.2116,0.214092,0.305164,0.431224,-0.27838,0.898088,-4.50818e-05
13.268,0.213407,0.30384,0.432103,-0.258994,0.892339,-4.5115e-05
13.3227,0.212695,0.302534,0.433016,-0.239232,0.886684,-4.51482e-05
13.3847,0.211959,0.30125,0.433962,-0.219118,0.88114,-4.51814e-05
13.4425,0.211203,0.29999,0.43494,-0.198681,0.875725,-4.52146e-05
13.5078,0.21043,0.298758,0.435949,-0.177952,0.870457,-4.52479e-05
13.5704,0.209643,0.297555,0.436986,-0.156964,0.865349,-4.52811e-05
13.6233,0.208847,0.296383,0.438052,-0.135749,0.860416,-4.53145e-05
13.6731,0.208045,0.295246,0.439144,-0.114343,0.855671,-4.53479e-05
13.7283,0.207242,0.294144,0.44026,-0.092786,0.851125,-4.53815e-05
13.7908,0.20644,0.29308,0.441398,-0.0711154,0.84679,-4.54151e-05
13.8463,0.205645,0.292055,0.442557,-0.04937,0.842673,-4.54489e-05
13.9018,0.20486,0.29107,0.443734,-0.027594,0.838781,-4.54828e-05
13.9651,0.204088,0.290127,0.444927,-0.00582775,0.83512,-4.55167e-05
14.0271,0.203334,0.289226,0.446134,0.0158873,0.831693,-4.55508e-05
14.0964,0.2026,0.288368,0.447351,0.0375079,0.828501,-4.5585e-05
14.1567,0.201892,0.287553,0.448576,0.0589873,0.825546,-4.56193e-05
14.2181,0.201211,0.286781,0.449807,0.0802895,0.822826,-4.56537e-05
14.2889,0.200561,0.286053,0.451041,0.101376,0.820336,-4.56882e-05
14.3472,0.199945,0.285368,0.452274,0.122202,0.818074,-4.57228e-05
14.3966,0.199366,0.284726,0.453505,0.142735,0.816031,-4.57575e-05
14.4495,0.198827,0.284127,0.454731,0.162943,0.814201,-4.57923e-05
14.5138,0.198328,0.283569,0.455949,0.182795,0.812576,-4.58273e-05
14.5841,0.197874,0.283053,0.457156,0.202248,0.811146,-4.58623e-05
14.6438,0.197466,0.282576,0.458349,0.221288,0.809901,-4.58975e-05
14.7092,0.197105,0.282139,0.459525,0.239873,0.80883,-4.59327e-05
14.7901,0.196792,0.28174,0.460683,0.257998,0.807922,-4.59681e-05
14.8541,0.196531,0.281378,0.461819,0.27563,0.807164,-4.60035e-05
14.9156,0.196321,0.281053,0.46293,0.292753,0.806545,-4.60389e-05
14.9897,0.196163,0.280762,0.464014,0.309347,0.806052,-4.60743e-05
15.0511,0.196059,0.280505,0.465069,0.325402,0.805673,-4.61097e-05
15.0989,0.196009,0.280281,0.466092,0.340896,0.805397,-4.61452e-05
15.1421,0.196014,0.280089,0.467079,0.355819,0.805211,-4.61808e-05
15.1795,0.196074,0.279928,0.46803,0.370168,0.805103,-4.62166e-05
15.2159,0.19619,0.279796,0.468941,0.383926,0.805062,-4.62524e-05
15.2544,0.196362,0.279692,0.46981,0.397086,0.805077,-4.6288e-05
15.2922,0.196589,0.279616,0.470633,0.409638,0.805137,-4.63234e-05
15.3313,0.196874,0.279567,0.47141,0.421581,0.805232,-4.63585e-05
15.3666,0.197214,0.279544,0.472138,0.432909,0.805353,-4.63934e-05
15.4034,0.197611,0.279546,0.472813,0.443611,0.80549,-4.64284e-05
15.4419,0.198065,0.279572,0.473434,0.453684,0.805634,-4.64633e-05
15.4829,0.198575,0.279622,0.473998,0.463124,0.805777,-4.64983e-05
15.5161,0.199141,0.279694,0.474503,0.471923,0.805912,-4.65333e-05
15.5438,0.199763,0.279789,0.474946,0.480078,0.806032,-4.65683e-05
15.5717,0.200441,0.279906,0.475326,0.487584,0.80613,-4.66032e-05
15.6021,0.201175,0.280044,0.475639,0.494434,0.806201,-4.6638e-05
15.6367,0.201964,0.280204,0.475885,0.500623,0.806239,-4.66727e-05
15.675,0.202809,0.280384,0.47606,0.506146,0.806239,-4.67073e-05
15.7049,0.203709,0.280584,0.476162,0.510996,0.806198,-4.67416e-05
15.7357,0.204663,0.280805,0.476191,0.515168,0.806113,-4.67758e-05
15.769,0.205672,0.281046,0.476143,0.518655,0.80598,-4.68098e-05
15.7931,0.206735,0.281307,0.476018,0.52145,0.805798,-4.68435e-05
15.8157,0.207851,0.281588,0.475814,0.523547,0.805566,-4.6877e-05
15.838,0.209021,0.281889,0.475529,0.52494,0.805283,-4.69102e-05
15.8603,0.210242,0.28221,0.475164,0.525622,0.80495,-4.69431e-05
15.8824,0.211516,0.282551,0.474716,0.525588,0.804567,-4.69758e-05
15.9048,0.212843,0.282913,0.474185,0.524832,0.804137,-4.70081e-05
15.9272,0.214221,0.283296,0.47357,0.523346,0.803661,-4.70401e-05
15.9496,0.215652,0.2837,0.472871,0.521125,0.803143,-4.70718e-05
15.9725,0.217133,0.284127,0.472089,0.518162,0.802589,-4.71033e-05
15.9968,0.218665,0.284575,0.471223,0.514454,0.802002,-4.71344e-05
16.0219,0.220248,0.285047,0.470274,0.509994,0.801389,-4.71653e-05
16.0531,0.221881,0.285543,0.469242,0.504778,0.800756,-4.7196e-05
16.0962,0.223564,0.286063,0.468128,0.498802,0.800112,-4.72265e-05
16.1348,0.225297,0.286609,0.466933,0.492063,0.799466,-4.72568e-05
16.1727,0.227079,0.287181,0.465657,0.484555,0.798826,-4.7287e-05
16.2201,0.228912,0.287781,0.464303,0.476278,0.798203,-4.73172e-05
16.2634,0.230795,0.288411,0.462871,0.467226,0.797609,-4.73473e-05
16.3052,0.232728,0.28907,0.461363,0.4574,0.797056,-4.73774e-05
16.3443,0.234711,0.289762,0.459779,0.446798,0.796556,-4.74076e-05
16.3905,0.236745,0.290487,0.458122,0.435417,0.796126,-4.7438e-05
16.45,0.23883,0.291247,0.456394,0.423264,0.795779,-4.74685e-05
16.5007,0.240966,0.292044,0.454595,0.410334,0.795531,-4.74993e-05
16.5454,0.243154,0.29288,0.452727,0.396633,0.7954,-4.75305e-05
16.5981,0.245393,0.293756,0.450792,0.382167,0.795402,-4.75619e-05
16.6661,0.247684,0.294676,0.448792,0.366938,0.795558,-4.75935e-05
16.7232,0.250028,0.295641,0.446729,0.350962,0.795885,-4.76252e-05
16.7741,0.252424,0.296654,0.444604,0.334244,0.796404,-4.7657e-05
16.8339,0.254871,0.297715,0.44242,0.316805,0.797135,-4.7689e-05
16.8973,0.257371,0.29883,0.440178,0.298657,0.798099,-4.7721e-05
16.953,0.259923,0.299998,0.437881,0.279823,0.799316,-4.77531e-05
17.0132,0.262526,0.301224,0.435532,0.260327,0.800807,-4.77854e-05
17.0867,0.265179,0.302508,0.433132,0.240199,0.802594,-4.78177e-05
17.1499,0.267881,0.303854,0.430684,0.219467,0.804695,-4.78501e-05
17.2103,0.270631,0.305264,0.428191,0.198173,0.80713,-4.78827e-05
17.2831,0.273428,0.306739,0.425655,0.176356,0.809916,-4.79154e-05
17.3543,0.27627,0.308283,0.42308,0.154051,0.813073,-4.79481e-05
17.4142,0.279154,0.309896,0.420468,0.131316,0.816612,-4.7981e-05
17.4759,0.282077,0.31158,0.417824,0.108204,0.820547,-4.8014e-05
17.5485,0.285038,0.313336,0.41515,0.0847656,0.82489,-4.80471e-05
17.6143,0.288031,0.315166,0.412451,0.0610645,0.829645,-4.80803e-05
17.6713,0.291054,0.317068,0.409729,0.0371637,0.834819,-4.81137e-05
17.7349,0.294102,0.319044,0.40699,0.0131266,0.84041,-4.81471e-05
17.8111,0.297171,0.321094,0.404237,-0.0109862,0.846418,-4.81806e-05
17.8786,0.300259,0.323218,0.401472,-0.0351273,0.852842,-4.82141e-05
17.9518,0.303358,0.325412,0.398702,-0.0592036,0.859665,-4.82477e-05
18.042,0.306462,0.327675,0.39593,-0.0831537,0.866874,-4.82815e-05
18.1165,0.309569,0.330006,0.39316,-0.106933,0.874456,-4.83153e-05
18.1951,0.312672,0.332402,0.390396,-0.130477,0.882392,-4.83493e-05
18.5612,0.315767,0.33486,0.387642,-0.153722,0.890655,-4.83831e-05
